X:1
T:Title
%%score { ( 1 3 ) | 2 }
L:1/8
M:3/4
K:Eb
V:1 treble nm="Grand Piano"
V:3 treble 
V:2 bass 
V:1
 z2 z[Q:1/4=94] [GB] [GB][EG] | [GB]3 [EG] [FA][DF] | [EG]3 [Ge] [Ae][Ac] | [GB]3 [EG] [EG][EF] | %4
[M:3/8] [DF]3 | [GB][GB][EG] |[M:3/4] [GB]3 [EG] [FA][DF] | [EG]3 [Ge] [Ae][Ac] | [GB]G E2 [DF]2 | %9
[M:3/8] E3 |[M:4/4] z2 z B- B4 | z2 z c- c4 | z8 | z2 z B- B4 | z2 z B- B4 | %15
[M:17/16] z/ z/ z/ z/ z c/-c/-c/-c/-c/-c/-c/-c-<c |[M:4/4] cdcB- B2 G[DB]- |[M:5/8] [DB] D2 E2- | %18
 E3 z2 |] %19
V:2
 z2 z [E,E] [E,E][E,B,] | [E,E]3 [E,B,] [B,,B,][B,,B,] | [E,B,]3 [E,B,] [A,C][A,E] | %3
 [E,E]3 [E,B,] [C,=A,][C,A,] |[M:3/8] [B,,B,]3 | [E,E][E,E][E,B,] | %6
[M:3/4] [E,E]3 [E,B,] [B,,B,][B,,B,] | [E,B,]3 [E,B,] [A,C][A,E] | %8
 [E,E][E,B,E] [C,=A,]2 [B,,_A,]2 |[M:3/8] [E,G,B,]3 |[M:4/4] z4 [E,E][F,D][A,D][G,B,] | %11
 z4 [A,C][G,B,][G,B,][F,A,] | A,G,F,[B,,F,] [B,,F,]3 [B,,G,]- | %13
 [B,,G,] [B,,A,]2 [E,G,E] [E,G,][B,,F,][B,,A,][E,G,] | z4 [E,E][F,D][A,D][G,B,] | %15
[M:17/16] z/ z/ z/ z/ z/ z/ z[K:treble] [A,E][A,E][A,E][=A,E]3/2 | %16
[M:4/4] [=A,E_G][A,DG][A,EG][B,E=G]- [B,EG]2[K:bass] [B,E][B,,F,]- | %17
[M:5/8] [B,,F,] [B,,A,B,]2 [E,G,B,]2- | [E,G,B,]3 z2 |] %19
V:3
 x6 | x6 | x6 | x6 |[M:3/8] x3 | x3 |[M:3/4] x6 | x6 | x6 |[M:3/8] x3 |[M:4/4] EF .G2 GAFE | %11
 BA .G2 E=EEF | AGF[DB] [DB]3 [EB]- | [EB] .[DB]3 EDDE | EF .G2 GAFE |[M:17/16] eed z AAG_G3/2 | %16
[M:4/4] x8 |[M:5/8] x5 | x5 |] %19

